X:1
T:Sonata No.11 in F-major for 2 Violoncello for 2 Violoncellos,  Op.4
T:Sonata No.11 in F-major 
T:Wilhelm De Fesch (Circa 1695 - 1758) Arr. by : Alfred Moffat (1866-1950)
T:for 2 Violoncellos,  Op.4 Transcribed for Recorde  and continuo in C-major from IMSLP#168239 PDF File
T:Public Domain
T:Public Domain
T:Public Domain
T:Public Domain
T:Public Domain
C:Wilhelm De Fesch (Circa 1695 - 1758)
Z:Public Domain
%%score [ 1 ( 2 3 ) ] { ( 4 5 8 ) | ( 6 7 ) }
L:1/8
Q:1/4=50
M:4/4
K:C
V:1 treble nm="Alto Recorder" snm="A. Rec."
V:2 bass nm="Viola da gamba" snm="Vla. d. g."
V:3 bass 
V:4 treble nm="Harpsichord" snm="Hch."
V:5 treble 
V:8 treble 
V:6 bass 
V:7 bass 
V:1
"^Largo.""^Preludio." z g (c'2- c'b/c'/) (d'g) | (f/e/) (f2 d') (eg)(c'e) | (Ped) (g2- g.c) f2- | %3
w: |||
w: |||
 f (e2 d/c/) (Bc) f2- | fe ad'/c'/ bc'/A/ TB>c | c2 z g (ga/b/) (.c'.c') | %6
w: |||
w: |||
 c'2- c'/(b/4c'/<d'/c'/4 b>)(d' c'/b/a/g/) | ^f2 d'2- d'/(g/f/g/) c'2- | %8
w: ||
w: ||
 c'/(^f/e/f/) b2- b/(e/f/g/) a2- | a/(d/g/e/) (T^f>g) (g2 c'g) | (f/e/f) (d'f) (e/d/e) (c'e) | %11
w: |||
w: |||
 (Ped) (g2- gf/e/) (f2- | fe/d/) (e4 _e2) | !fermata!d2 z f (e>A) (TB>c) | %14
w: |||
w: |||
 c(e/f/ g2- g)(e/f/ g)(a/b/ | c') g2 f ec g2- | g2{/A} (T^f3/2{ef}g/) !fermata!g4 |] %17
w: |||
w: |||
[M:4/4][Q:1/4=100]"^Allegro.""^Allemanda" c'2 b2 c'2 z .g | %18
w: |
w: |
 .a/.g/.a/g/ .f/.a/g/.f/ .g/.f/.g/.f/ .e/.g/.f/.e/ | .f/.e/.f/.e/ .d/.f/.e/.d/ .e.c z .g | %20
w: ||
w: ||
 .a/.g/.a/.g/ .f/.a/.g/.a/ .b/.a/.b/.a/ .g/.b/.a/.b/ | %21
w: * * * * * * * * * * * * * * 4 *|
w: |
 .c'/.b/.c'/.b/ .a/.c'/.b/.c'/ d'/.c'/.b/.a/ .g/.f/.e/.d/ | .e/.d/.c/.d/ .e/.f/g/.f/ .e.c.G.B | %23
w: * * * * * ‚. * * * * * * * * * *||
w: ||
 c2 .g/.f/.e/.d/ .e/.c/.e/.f/ g/.f/.e/.d/ | .e.c .a/.g/.^f/.e/ .f/.d/.f/g/ .a/.g/.f/.e/ | %25
w: ||
w: ||
 .^f.d d'd' (d'g).c'.c' | (c'^f).b.b (be)(.a.g) | %27
w: ||
w: |* * * * . * * *|
 .^f/.d/.e/.f/ (g/f/).g/.f/ .e/.f/.g/.e/ (a/g/).a/.g/ | %28
w: |
w: |
 .^f/.g/.a/.f/ (b/a/).b/.a/ .g/.a/.b/.g/ (c'/b/).c'/.b/ | %29
w: |
w: |
 .a/.b/.c'/.a/ (d'/c'/).d'/.c'/ (b/d'/).c'/.b/ .c'/.b/.a/.g/ | %30
w: |
w: |
 .^f/.d/.e/.f/ .g/.a/.b/.c'/ .d'/.f/.g/.B/ .d.f |1 g.B/.c/ (.d.d) G4 :|2 g.B/.c/ (.d.d) G4 || %33
w: |||
w: |||
 .g2 ^f2 g2 z d | .e/.d/.e/.d/ .c/.e/.d/.c/ .d/.c/.d/.c/ .B/.d/.c/.B/ | %35
w: ||
w: ||
 .c/.B/.c/.B/ .A/.c/.B/A/ .B.G z .g | .a/.g/.a/.g/ .f/.a/.g/.f/ .g/.f/.g/.f/ .e/.g/.f/.e/ | %37
w: |1 * * * * * * * * * * * * * * *|
w: ||
 .f/.e/.f/.e/ .d/.f/.e/.d/ .e.c z .e | (a/e/)(b/e/) (c'/e/)(b/e/) (a/e/)(b/e/) (c'/e/)(b/e/) | %39
w: ||
w: ||
 (a/e/)(b/e/) (c'/e/)(d'/e/) c'^gad | cae^g A2 a2- | a.g/.^f/ .g.f/.e/ .^d.B a2- | %42
w: |||
w: |||
 a.g/.^f/ .g.f/.e/ (^d3 .B) | .e/.B/.^f/.B/ .g/.B/.f/.B/ .e/.B/.f/.B/ .g/.B/.f/.B/ | %44
w: |* * * * * * * * * * * . . * . .|
w: ||
 .e/.B/.^f/.B/ .g/.B/.a/.B/ b^deA | GeB^d e2 z2 | c'2 b2 c'2 z .g | %47
w: . . . * * * * * * * * *|||
w: |||
 .a/.g/.a/.g/ .f/.a/.g/.f/ .g/.f/.g/.f/ .e/.g/.f/.e/ | .f/.e/.f/.e/ .d/.f/.e/.d/ .e.c'/.b/ .c'.e | %49
w: ||
w: ||
 .c.c' (_b2 a).d'/.c'/ .d'.^f | .d.d' (c'2 b).g.b.d' | .f d'2 .f e.c'/.b/ .c'.e | %52
w: |||
w: |||
 .d.b.c.a B g2 ._B | .A.f/.e/ .f.f (B>g) e2 | z .A B2 .c.c'/b/ .c'.e/.f/ | .g.c.G.B .c4 |] %56
w: ||||
w: ||||
[M:3/4][Q:1/4=50]"^Largo.""^Srabanda." e2 a2 c'2 | b6 | c'2 (a3 b) | (^g3 ^f) e2 | %60
w: ||||
w: ||||
 (ag)((fe) (d^c)) | (d3 e) c2 | (BA) (Td3 e) |1 .e6 :|2 e6 |: e2 (g^f) g2- | g2 (fe) f2 | %67
w: |||||||
w: |||||||
 d2 (fe) f2- | f2 (ed) e2 | a2 (T^g3 ^f/g/) | (a3 b) c'2 | b2 ((Ta3 ^g/a/) | ^g4) !tenuto!e2 | %73
w: ||||||
w: ||||||
 f2 !tenuto!^f2 T^g2{fg} | a4 A2 | f2 (TB3 A) |1 A6 :|2 !fermata!A6 |] %78
w: |||||
w: |||||
[M:3/4]"^Minuetto."[Q:1/4=140]"^Con grazia." (ef) (Tf3 e/f/) | (g2 c2) (g2 | a2 g2 f2) | (Te4 d2) | %82
w: ||||
w: ||||
 (ef g2) d2 | (ef g2) c2 | (Bc) (Tc3 B/c/) | (dcBA) G2 | (ef) (Tf3 e/f/) | (g2 c2) (g2 | %88
w: ||||||
w: ||||||
 a2 g2 f2) | (Te4 d2) | (ef g2) a2 | (d2 g2) e2 | a2 (T^f3 e/f/) | g6 :: c'2 (c'b) (c'b) | %95
w: |||||||
w: |||||||
 (a2 A2) (a2 | b2) (ba)(ba) | ^g6 | e2 a2 c'2 | ba bc' d'2 | e2 a2 c'2 | (babc') d'2 | e2 a2 ^g2 | %103
w: ||||||||
w: ||||||||
!>(! a6!>)! | (c'2 g2) g2 | g2 fe f2 | (d'2 f2) f2 | f2 (edef) | (g2 c2) a2 | (g2 c2) a2 | %110
w: |||||||
w: |||||||
 (g2 f2) e2 | d6 | d2 f4 | e2 _b4 | a2 c'4 | (b3 a/b/) c'2 | f2 (edcB) | c6!fine! :: %118
w: ||||||||
w: ||||||||
[K:Eb] g2 c2 .a2 | (g4 c2) | (f2 e2) .d2 | (e2 de) c2 | e2 (g2 a2) | d2 (f2 g2) | c2 e2 f2 | g6 :: %126
w: ||||||||
w: ||||||||
 (ga b2) g2 | (=ef g2) c2 | (b2 a2 g2) | (a2 F4) | (fg a2) f2 | (de f2) B2 | a2 g2 f2 | g2 (edef) | %134
w: ||||||||
w: ||||||||
 g2 a4 | =B4 c2 | g2 a4 | =B4 c2 | a2 Tf4 | g2 (!tenuto!c'2 !tenuto!=b2) | c'2 (Td3 (.c/d/)) | %141
w: |||||||
w: |||||||
 c4 z2!D.C.! :| %142
w: |
w: |
V:2
 (C,D,E,F, (G,)G,/A,/ B,C) | (DCB,(G,) CC,/D,/ E,F,) | G,2 z E, A,A,, D,(D/C/ | B,)CF,F (FEDC) | %4
 (B,C) (CD) (DC) G,G,, | (C,CB,G,) (C>B,) (A,/G,/^F,/E,/) | (D,2 E,^F,) (G,G,,E,C,) | %7
 (D,D/C/ B,G,) (CDEA,) | (DD,G,G,,) C, C2 C | B,CDD, (DG,/=F,/ E,C,) | %10
 (D,C,B,,G,,) C,(C,/D,/ E,)C, | (G,G,,) z (E/D/ C2) z D/C/ | B,G,CC, F,2 ^F,2 | %13
 !fermata!G,2 z2 (CF,G,G,,) | (C,C(B,G,)) (CC,CB,) | (A,2 B,2 C3 B,) | (A,2 D2) !fermata!G,4 |] %17
[M:4/4] .C/.D/.E/.F/ G/A/.G/.F/ .E.C/D/ EC | FF,/G,/ A,F, E,E/D/ CA, | DCB,G, CC/D/ EC | %20
 F2 z F GG, z G | AA, z A, B,G,B,G, | CECB, (C/D/E/F/ G/A/G/F/) | ECB,G, C,CB,G, | CE^CA, D,DCA, | %25
 D>^C B,/C/D/B,/ E/D/C/B,/ A,/B,/C/A,/ | D/C/B,/A,/ G,/A,/B,/G,/ C/D/C/B,/ A,/B,/C/A,/ | %27
 DCB,G, CB,CA, | DCDB, EE,A,G, | ^F,E,F,D, G,B,EC | DCB,A, G,C, D,2 |1 %31
 D, z D,2 G,/D,/B,,/D,/ G,, z :|2 D, z D,2 .G,,A,,/B,,/ .C,/.D,/.E,/.^F,/ || %33
 .G,/.A,/B,/.C/ .D/.E/.D/.C/ .B,.G,/.A,/ .B,.G, | CC/D/ EC B,B,/A,/ G,G,, | A,G,^F,D, G,G/F/ EC | %36
 FF,/G,/ A,F, E,E/D/ CA, | DCB,G, CC/D/ CB, | A,^G,A,B, CG,A,B, | C^G,A,F, E,E/D/ CB, | %40
 A,/B,/C/D/ EE, A,B,CA, | ^D,2 E,2 B,3 ^C | ^D2 E2 B,B,/C/ B,A, | G,(^D,E,)^F, G,D,E,F, | %44
 G,^D,E,C, .B,,B,/A,/ G,^F, | E,/^F,/G,/A,/ B,B,, E,3 =D, | C/D/E/F/ G/A/G/F/ EC/D/ EC | %47
 FF,/G,/ A,F, E,E/D/ CA, | DCB,G, C2 C, z | z C DE F z z2 | z D E^F G2 G, z | %51
 z [G,B,]/[A,C]/ [B,D][G,B,] C2 C, z | [G,,G,]2 [A,,A,]2 [E,,E,]2 [C,,C,]2 | %53
 [F,,F,]2 ([D,D][C,C]) [B,,B,][G,,G,][C,C]C, | F,D,G,G,, C,2 z C/D/ | %55
 E(E,/F,/ G,)G,, !fermata!C,4 |][M:3/4] A,4 A,2 | E,6 | A,2 C2 D2 | B,4 (CB,) | (A,2 DCB,A,) | %61
 (^G,2 E,2 A,2) | =G,2 F,4 |1 (E,3 D, C,B,,) :|2 (E,4 D,2) |: (^C,4 A,,2) | (D,4 =C,2) | %67
 (B,,4 G,,2) | C,6 | C2 B,2 D2 | (C2 B,2 A,2) | (F2 ^F4) | E6 | (D2 C2 B,2) | C2 A,B, !>!C2 | %75
 D,2 E,4 |1 A,6 :|2 (A,2 E,2 A,,2) |][M:3/4] C2 D2 G,2 | (E4 E,2) | (F,2 E,2 D,2) | %81
 (C,2 G,2 G,,2) | C2 B,2 G,2 | (C2 B,2 A,2) | G,2 A,2 _A,2 | (G,2 G,,2) z2 | C2 (D2 G,2) | %87
 (E4 E,2) | (F,2 E,2 D,2) | (C,2 G,2 G,,2) | (C,4 C2) | C2- B,2 C2 | (A,2 D2 D,2) | G,2 (G=FED) :: %94
 C2 (C,2 E2) | F2 (FE)(FE) | (D2 D,2) D2 | E2 (ED)(ED) | (CDCB, A,2) | (^G,4 E,2) | A,2 (CB, A,2) | %101
 ^G,6 | A,2 (C2 E,2) | (A,CB,A,=G,F,) | E,4 A,2 | D,2 (D2 C2) | (B,4 G,2) | (C3 B,CD) | (E4 F2) | %109
 (E4 F2) | (E2 D2 C2) | G,6 | G,6 | C6 | (F,2 ^F,2 D,2) | (G,2 =F,2 E,2) | F,2 (G,2 G,,2) | %117
 (C,2 C,,2) z2 ::[K:Eb] (C2 C,2 F,2) | ([C,C]2 [D,D]2 [E,E]2) | [D,D]2 (G,2 G,,2) | z2 (G,2 C2) | %122
 (C4 F,2) | (B,4 E,2) | A,6 | (G,2 G,,4) :: G,6 | C6 | C,6 | C6 | F,6 | B,6 | B,,6 | B,6 | C2 F,4 | %135
 G,4 A,2 | E,2 F,4 | G,4 A,2 | F,2 B,2 B,,2 | E,4 D,2 | (C,/D,/E,/F,/ G,2) G,,2 | C,6 :| %142
V:3
 x8 | x8 | x8 | x8 | x8 | x8 | x8 | x8 | x8 | x8 | x8 | x8 | x8 | x8 | x8 | x8 | x8 |][M:4/4] x8 | %18
 x8 | x8 | x8 | x8 | x8 | x8 | x8 | x8 | x8 | x8 | x8 | x8 | x8 |1 x8 :|2 x8 || x8 | x8 | x8 | x8 | %37
 x8 | x8 | x8 | x8 | x8 | x8 | x8 | x8 | x8 | x8 | x8 | x8 | x8 | x8 | x8 | x8 | x8 | x8 | x8 |] %56
[M:3/4] x6 | x6 | x6 | x6 | x6 | x6 | x6 |1 x6 :|2 x6 |: x6 | x6 | x6 | x6 | x6 | x6 | x6 | x6 | %73
 x6 | x6 | x6 |1 x6 :|2 x6 |][M:3/4] x6 | x6 | x6 | x6 | x6 | x6 | x6 | x6 | x6 | x6 | x6 | x6 | %90
 x6 | x6 | x6 | x6 :: x6 | x6 | x6 | x6 | x6 | x6 | x6 | x6 | x6 | x6 | x6 | x6 | x6 | x6 | x6 | %109
 x6 | x6 | x6 | x6 | x6 | x6 | x6 | x6 | x6 ::[K:Eb] x6 | x6 | x6 | C,6 | x6 | x6 | x6 | x6 :: x6 | %127
 x6 | x6 | x6 | x6 | x6 | x6 | x6 | x6 | x6 | x6 | x6 | x6 | x6 | x6 | x6 :| %142
V:4
 (EFGA) G4 | z (F [DFG]2) G c2 c | ([Ec][DB]) z2 CF/E/ D[FA] | [FG][EG][FA][Ad] ([Bd]c) (cB/A/) | %4
 ([FG][EG]) [FA]2 ([GB]c) (cB) | [EGc]2 (dB) [EGc][EGc][EAc]c | c4 [DB]2 c2 | ([D^Fc][FA] GB) c4 | %8
 ([^Fc]2 [DGB]2) (!tenuto!B2 A2) | (AG/A/4B/4 [Fc]2 [GB]2) (c/d/e) | [FA]2 G/A/B [Ec]2 c2 | %11
 ([Ec][DB]) z c/B/ A2 z B/A/ | (G[FB]) c(c/B/ [EA]2) [C_EA]2 |!>(! !fermata![B,DG]2 z2 c2 B2!>)! | %14
 [EGc]2 (GB) [EGc]2 z [EGc] | ([EAc]2 [FGd]2 [EGe]4) | ([Gce]2 [^Fcd]2) !fermata![GBdg]4 |] %17
[M:4/4] [ceg]2 [Bdg]2 [cg][ce]/[cf]/ ge | [Acf]2 cA [Gc]2 [ce]c | fAdB [Ec]E/F/ (G/c/e/g/) | %20
 [Ac]2 z [Ad] [Bd]2 z [Be] | [ce]2 z [cf] [Gf]4 | e3 d [ce]2 d2 | cedg [Gce]2 (d.g) | %24
 [Gce]2 (ea) [Ad^f]2 (ea) | [Ad^f]2 G/A/B/G/ Gg ^F/G/A/F/ | ^F^f E/F/G/E/ (EA [Ec]2) | %27
 c/B/A dB [Ec]4 | A2 B2 [GB]2 [Ec]2 | [DAc]4 BGGA | [^FA]d[Gd][Fc] [DGB][EGB] [CA]2 |1 %31
 [B,DG] z G^F [B,DG]4 :|2 [B,DG] z [A,D]2 [B,DG]4 || [GBd]2 [^FAd]2 .[Gd][GB]/[Gc]/ .d.B | %34
 [Gce]2 ge [Gd]2 gd | [EAc]2 c2 [GB][Bd] ge | [Acf]2 cA [Gc]2 ec | fAdB [Ec]2 [E^Ge]2 | %38
 cBA^G [EA]EeE | ed cB/A/ [E^G][GB] [Ee]2 | [Ece][EAc][AB][E^Ge] cdec | %41
 [^FAc]2 [=GB]2 z/ (F/B/^d/ f2) | B B2 B [^FB^d]2 [^DFB]2 | B4 ([EB]B,)BB, | BA GF/E/ z2 [B,B]2 | %45
 [B,GB][B,EG][EF][B,^DB] [B,EG] [EGB][GBe][B=fg] | [ceg]2 [Bdg]2 [cg][ce]/[cf]/ ge | %47
 [Acf]2 cA [Gc]2 ec | fAdB z/ (E/G/c/ e) z | z c c2 [Ac] z z2 | z [^Fd] d2 [Bd][Bd]/[Ac]/ [GB] z | %51
 z =F F2 z/ (E/G/c/ e) z | [DGB]2 [CEA]2 [B,EG]2 [_B,EG]2 | (ED) [FA]2 dB [EGc]2 | %54
 [Dc]2 [DB]2 [CEc]2 z2 | ge [Fd]2 !fermata![EGc]4 |][M:3/4] [ce]>[Bd] [Ac]2 [CEA]2 | %57
 [B,E^G]2 (B2 G2) | ([CEA]2 E2 F2) | (^GB e2) (e[Gd]) | [EAc]2 [FA]4 | (B3 ^G) [CEA]2 | %62
 [B,E]2 [A,B,]4 |1 [^G,B,E]2 [B,E^G]4 :|2 ([^G,B,E]2 [B,E^G]4) |: [A,=GA]6 | [A,DA]6 | [G,FG]6 | %68
 [G,CG]6 | [Ee]6 | (e3 d [EAc]2) | [Ad]2 [Ac]4 | (B2 ed [Ac]2) | [FA]2 [D-^FA]2 [DE^GB]2 | A6 | %75
 [B,FA]2 [B,E]4 |1 A6 :|2 [CEA]6 |][M:3/4][K:treble] [EGc]2 (c2 B2) | (cgecGc) | (CcCcCc) | %81
 CcEc B2 | [EGc]2 (GA B2) | [EGc]2 (G2 ^F2) | [B,G]2 C4 | [B,F]4 z2 | [EGc]2 (c2 B2) | (cgecGc) | %88
 (CcCcCc) | CcEc B2 | c4 [EA]2 | ^FAGDGE | [EAc]2 [^Fc]4 | ([GB]2 [Bd]4) :: [Gce]4 [Gc]2 | [Ac]6 | %96
 [FB]4 [FB]2 | [^GB]6 | (e3 d c2) | (e2 dc B2) | [EAc]2 A4 | E6 | (CE)(EA) ^G2 | [EAce]2 [Ec]4 | %104
 (CGcGcG) | A6 | (FGdGBG) | [FG]2 [Ec]2 z2 | (GcgcAc) | (GcgcAc) | (GcFcEc) | (c2 BA B2) | %112
 z (FdBGF) | z (Ec_BGE) | ([CA]c[DA]c[DA]c) | z (DBd) (eg) | [FAc]2 (G2 B2) | [EGc]6 :: %118
[K:Eb] ([EG]c[EG]c[FA]c) | (EcFcGc) | (FAG=BFB) | c2 =B2 c2 | (GcecAc) | (FBdBGB) | E A cA dc | %125
 (=Bd)(dg) g2 :: EFGBeB | (GABg=ec) | ([B_d]=ece[GB]e) | ([Ac]f[Ac]F[Ac]F) | (ABcfcA) | (FGAfdB) | %132
 ([Ac]e[GB]e[FA]d) | ([GB]e[GB]E[GB]E) | (EG) (FAcf) | (FG/A/) (GFEF) | ([CG]c) (FAcf) | %137
 (FG/A/) (GFEA) | (Ac) (DABA) | (Gcec) (G=B) | [EGc]2 (c2 =B2) | ([EG]c[EG]C [EG]2) :| %142
V:5
 x4 (D3 E) | x4 (EE/F/ GE) | G2 x6 | x4 G2 .F2 | x5 G/E/ [DG]2 | x2 [DG]2 x3 (A/G/) | %6
 ^F(FGA) (AG)GE | x2 D2 (E^FGE) | x8 | DE x4 G2 | x2 F2 x2 (GE) | G2 x6 | x2 E2 x4 | %13
 x4 ([EG][EA][DG]F) | x2 F2 x4 | x8 | x8 |][M:4/4] x6 c2 | x2 F2 x2 G2 | F2 F2 x4 | x8 | x8 | %22
 G4 G2 (cB) | G2 G2 x2 G2 | x2 A2 x2 A2 | x8 | x8 | ^F2 [DG]2 x4 | (^F3 G) x4 | x4 D2 x2 | %30
 ^F2 D2 z2 GF |1 x2 [A,D]2 x4 :|2 x2 G^F x4 || x6 G2 | x2 [Gc]2 x2 [GB]2 | x2 [Ac]^F x2 [Gc]2 | %36
 x2 F2 x2 [Gc]2 | F2 F2 x4 | E4 x4 | E3 D x2 A^G | x4 [EA]4 | x8 | ^F2 G2 x4 | [EG]^FE^D z4 | %44
 B,3 A, [B,^D][DF]ED | x8 | x6 c2 | x2 F2 x2 [Gc]2 | F2 F2 x4 | z E FG x4 | x2 GA x4 | x8 | x8 | %53
 !arpeggio![A,A]2 x2 [FG]2 x2 | AFGF z4 | [Gc]2 cB x4 |][M:3/4] E4 x2 | x2 [B,E]4 | x2 A4 | %59
 [E^G]4 [EA]2 | x6 | F2 E2 x2 | x2 (D3 E) |1 x6 :|2 x6 |: (E4 ^C2) | (G2 F4) | (D4 B,2) | (F2 E4) | %69
 A2 ^G2 B2 | [E-A]2 [E^G]2 x2 | x6 | ^G4 x2 | x6 | E2- CD E2 | x2 (A2 ^G2) |1 (CDED C2) :|2 x6 |] %78
[M:3/4][K:treble] x2 [FG]4 | G6 | x6 | x4 FG | x2 F4 | x2 D4 | x2 (^F2 =F2) | x6 | x2 [FG]4 | %87
 G4 x2 | x6 | x4 FG | ([EG][DF] [CE]2) x2 | D2 x4 | x6 | x6 :: x6 | x6 | x6 | x6 | [EA]6 | E6 | %100
 x2 (ED C2) | (E2 DC B,2) | x4 (Be) | x6 | x6 | (G2 F4) | x6 | x6 | x6 | x6 | x6 | [DG]4 x2 | x6 | %113
 x6 | x6 | x2 G2 [Gc]2 | x2 F4 | x6 ::[K:Eb] x6 | x6 | x6 | (EGFGEG) | x6 | x6 | x4 F2 | G2 =B4 :: %126
 x6 | x6 | x6 | x6 | x6 | x6 | x6 | x6 | x6 | D4 C2 | x6 | F2 x2 C2 | C2 x4 | E4 F2 | x2 [DG]4 | %141
 x6 :| %142
V:6
 (C,D,E,F, (G,)G,/A,/ B,C) | (DCB,(G,) CC,/D,/ E,F,) | G,2 z E, A,A,, D,(D/C/ | %3
 B,)CF,[F,F] ([F,F][E,E][D,D][C,C]) | ([B,,B,][C,C]) (CD) (DC) G,G,, | %5
 (C,CB,G,) (C>B,) (A,/G,/^F,/E,/) | (D,2 E,^F,) (G,G,,E,C,) | (D,D/C/ B,G,) (CDEA,) | %8
 (DD,G,G,,) C, C2 C | B,CDD, ([G,D]G,/=F,/ E,C,) | (D,C,B,,G,,) C,(C,/D,/ E,)C, | %11
 (G,G,,) z (E/D/ C2) z D/C/ | B,G,CC, F,2 [^F,,^F,]2 | !fermata![G,,G,]2 z2 (CF,G,G,,) | %14
 (C,C(B,G,)) (CC,CB,) | ([A,,A,]2 [B,,B,]2 [C,C]3 [B,,B,]) | ([A,,A,]2 [D,D]2) !fermata![G,,G,]4 |] %17
[M:4/4] .C/.D/.E/.F/ G/A/.G/.F/ .E.C/D/ EC | FF,/G,/ A,F, E,E/D/ CA, | DCB,G, CC/D/ EC | %20
 F2 z F GG, z G | AA, z A, B,G,B,G, | CECB, (C/D/E/F/ G/A/G/F/) | ECB,G, C,CB,G, | CE^CA, D,DCA, | %25
 D>^C B,/C/D/B,/ E/D/C/B,/ A,/B,/C/A,/ | D/C/B,/A,/ G,/A,/B,/G,/ C/D/C/B,/ A,/B,/C/A,/ | %27
 DCB,G, CB,CA, | DCDB, EE,A,G, | ^F,E,F,D, G,B,EC | DCB,A, G,C, D,2 |1 %31
 [D,,D,] z [D,,D,]2 [G,,G,]/D,/B,,/D,/ G,, z :|2 %32
 [D,,D,] z [D,,D,]2 .G,,A,,/B,,/ .C,/.D,/.E,/.^F,/ || %33
 .G,/.A,/B,/.C/ .D/.E/.D/.C/ .B,.G,/.A,/ .B,.G, | CC/D/ EC B,B,/A,/ G,G,, | A,G,^F,D, G,G/F/ EC | %36
 FF,/G,/ A,F, E,E/D/ CA, | DCB,G, CC/D/ CB, | A,^G,A,B, CG,A,B, | C^G,A,F, E,E/D/ CB, | %40
 A,/B,/C/D/ EE, A,B,CA, | ^D,2 E,2 B,3 ^C | ^D2 E2 B,B,/C/ B,A, | G,(^D,E,)^F, G,D,E,F, | %44
 G,^D,E,C, .B,,B,/A,/ G,^F, | E,/^F,/G,/A,/ B,B,, E,3 =D, | C/D/E/F/ G/A/G/F/ EC/D/ EC | %47
 FF,/G,/ A,F, E,E/D/ CA, | DCB,G, C2 C, z | z C DE F z z2 | z D E^F G2 G, z | %51
 z [G,B,]/[A,C]/ [B,D][G,B,] C2 C, z | [G,,G,]2 [A,,A,]2 [E,,E,]2 [C,,C,]2 | %53
 [F,,F,]2 ([D,D][C,C]) [B,,B,][G,,G,][C,C]C, | F,D,G,G,, C,2 z C/D/ | %55
 E(E,/F,/ G,)G,, !fermata!C,4 |][M:3/4] [A,,A,]4 [A,,A,]2 | E,6 | [A,,A,]2 [C,C]2 [D,D]2 | %59
 B,4 ([C,C][B,,B,]) | ([A,,A,]2 [D,D][C,C][B,,B,][A,,A,]) | ([^G,,^G,]2 [E,,E,]2 [A,,A,]2) | %62
 [=G,,=G,]2 [F,,F,]4 |1 ([E,,E,]3 D, C,B,,) :|2 ([E,,E,]4 D,2) |: (^C,4 A,,2) | (D,4 =C,2) | %67
 (B,,4 G,,2) | C,6 | C2 B,2 D2 | (C2 B,2 A,2) | ([DF]2 [^D^F]4) | E6 | ([D,D]2 [C,C]2 [B,,B,]2) | %74
 [C,-C]2 [A,,A,][B,,B,] !>![C,C]2 | D,2 [E,,E,]4 |1 A,6 :|2 ([A,,A,]2 [E,,E,]2 [A,,,A,,]2) |] %78
[M:3/4] C2 D2 G,2 | (E4 E,2) | (F,2 E,2 D,2) | (C,2 G,2 G,,2) | C2 B,2 G,2 | (C2 B,2 A,2) | %84
 G,2 A,2 _A,2 | (G,2 G,,2) z2 | C2 (D2 G,2) | (E4 E,2) | (F,2 E,2 D,2) | (C,2 G,2 G,,2) | %90
 (C,4 C2) | C2- B,2 C2 | (A,2 D2 D,2) | G,2 (G=FED) :: C2 (C,2 E2) | F2 (FE)(FE) | (D2 D,2) D2 | %97
 E2 (ED)(ED) | (CDCB, A,2) | (^G,4 E,2) | A,2 (CB, A,2) | ^G,6 | A,2 (C2 E,2) | (A,CB,A,=G,F,) | %104
 E,4 A,2 | D,2 (D2 C2) | (B,4 G,2) | (C3 B,CD) | (E4 F2) | (E4 F2) | (E2 D2 C2) | G,6 | [G,,G,]6 | %113
 [C,C]6 | (F,2 ^F,2 D,2) | (G,2 =F,2 E,2) | F,2 (G,2 G,,2) | (C,2 C,,2) z2 ::[K:Eb] (C2 C,2 F,2) | %119
 ([C,C]2 [D,D]2 [E,E]2) | [D,D]2 (G,2 G,,2) | z2 (G,2 C2) | (C4 F,2) | (B,4 E,2) | A,6 | %125
 (G,2 G,,4) :: G,6 | C6 | [C,C-]6 | [F,C]6 | [F,C]6 | B,6- | [B,,B,]6 | [E,B,]6 | C2 F,4 | %135
 G,4 A,2 | E,2 F,4 | G,4 A,2 | F,2 B,2 B,,2 | E,4 D,2 | (C,/D,/E,/F,/ G,2) G,,2 | C,6 :| %142
V:7
 x8 | x8 | x8 | x8 | x2 F,2 F,(E,/F,/) x2 | x8 | x8 | x8 | x8 | x8 | x8 | x8 | x8 | x8 | x8 | x8 | %16
 x8 |][M:4/4] x8 | x8 | x8 | x8 | x8 | x8 | x8 | x8 | x8 | x8 | x8 | x8 | x8 | x8 |1 x8 :|2 x8 || %33
 x8 | x8 | x8 | x8 | x8 | x8 | x8 | x8 | x8 | x8 | x8 | x8 | x8 | x8 | x8 | x8 | x8 | x8 | x8 | %52
 x8 | x8 | x8 | x8 |][M:3/4] x6 | (E,2 ^G,,2 E,,2) | x6 | (E,3 D,) x2 | x6 | x6 | x6 |1 x6 :|2 %64
 x6 |: x6 | x6 | x6 | x6 | x6 | x6 | x6 | (E2 E,2 [A,E]2) | x6 | x6 | x6 |1 (A,,B,,C,B,, A,,2) :|2 %77
 x6 |][M:3/4] x6 | x6 | x6 | x6 | x6 | x6 | x6 | x6 | x6 | x6 | x6 | x6 | x6 | x6 | x6 | x6 :: x6 | %95
 x6 | x6 | x6 | x6 | x6 | x6 | x6 | x6 | x6 | x6 | x6 | x6 | x6 | x6 | x6 | x6 | x6 | x6 | x6 | %114
 x6 | x6 | x6 | x6 ::[K:Eb] x6 | x6 | x6 | C,6 | x6 | x6 | x6 | x6 :: x6 | x6 | x6 | x6 | x6 | x6 | %132
 x6 | x6 | x6 | x6 | x6 | x6 | x6 | x6 | x6 | x6 :| %142
V:8
 x8 | x8 | x8 | x8 | x8 | x8 | x8 | x8 | x8 | x8 | x8 | x8 | x8 | x8 | x8 | x8 | x8 |][M:4/4] x8 | %18
 x8 | x8 | x8 | x8 | x8 | x8 | x8 | x8 | x8 | x8 | x8 | x8 | x8 |1 x8 :|2 x8 || x8 | x8 | x8 | x8 | %37
 x8 | x8 | x8 | x8 | x8 | x8 | x8 | x8 | x8 | x8 | x8 | x8 | x8 | x8 | x8 | x8 | x8 | x8 | x8 |] %56
[M:3/4] x6 | x6 | x6 | x6 | x6 | D4 x2 | x6 |1 x6 :|2 x6 |: x6 | x6 | x6 | x6 | x6 | x6 | x6 | x6 | %73
 x6 | x6 | x6 |1 x6 :|2 x6 |][M:3/4][K:treble] x6 | x6 | x6 | x6 | x6 | x6 | x6 | x6 | x6 | x6 | %88
 x6 | x6 | x6 | x6 | x6 | x6 :: x6 | x6 | x6 | x6 | x6 | x6 | x6 | x6 | x6 | x6 | x6 | x6 | x6 | %107
 x6 | x6 | x6 | x6 | x6 | x6 | x6 | x6 | x6 | x6 | x6 ::[K:Eb] x6 | x6 | x6 | x6 | x6 | x6 | x6 | %125
 x6 :: x6 | x6 | x6 | x6 | x6 | x6 | x6 | x6 | x6 | x6 | x6 | x6 | x6 | x6 | x6 | x6 :| %142

